X:5851
T:Scott Skinner' Rockin' Step
O:england
C:James Scott Skinner
B:Harp & Claymore, 1903 (via The Scottish Violinist)
M:4/4
L:1/8
K:D
e|c>e A/A/e c>eA>e|c>e A/A/e A/A/e a>e|c>e A/A/e c/e/e A/e/e|G,/B/B g/B/B d2 d:|]
f|e>ac>a A/A/A a2|A/A/A a2 f2 e<a|e>ac>a A/A/A g2|G,/B/B g/B/B d2 df|
e>ac>a A/A/A a2|A/A/A a2 f2 e/f/g|a/f/a g/e/g f/d/f e/c/e|G,/B/B g/B/B d2 d|]
